static/cards/FrenchDeck/cyberwave/card_clubs_09.svg

<svg xmlns="http://www.w3.org/2000/svg" width="822" height="1122" fill="none" viewBox="0 0 822 1122"><rect width="822" height="1122" fill="#1a0033" rx="20"/><g fill="#fff066" clip-path="url(#a)"><path d="M118.254 160.92q-7.169 0-13.056-1.536-5.76-1.536-9.728-4.224-.767-.512-.896-.896-.128-.384.256-1.152l1.664-2.816q.384-.768.896-.768.256 0 .896.384 8.064 5.12 20.096 5.12 12.416 0 19.968-8.96 7.68-9.088 8.704-25.472-9.984 12.16-26.752 12.16-9.473 0-16.896-3.456-7.296-3.584-11.52-10.112-4.096-6.656-4.096-15.872 0-16.384 9.344-24.832t25.472-8.448q14.592 0 23.04 9.472 8.576 9.344 8.576 29.568 0 28.416-10.496 40.192-10.496 11.648-25.472 11.648m3.2-34.176q6.016 0 12.032-2.56 6.016-2.688 9.856-7.68 3.968-5.12 3.968-12.288 0-14.08-6.528-21.12-6.528-7.168-18.176-7.168-28.16 0-28.16 27.392 0 11.52 7.04 17.536 7.04 5.888 19.968 5.888M141.309 231.337v-.004c0-11.782-9.224-21.333-20.603-21.333s-20.603 9.551-20.603 21.333c-11.379 0-20.603 9.552-20.603 21.334S88.724 274 100.103 274c10.386 0 18.977-7.957 20.397-18.305C121.92 266.043 130.511 274 140.897 274c11.379 0 20.603-9.551 20.603-21.333 0-11.64-9.002-21.102-20.191-21.33"/><rect width="5" height="33" x="118.5" y="251" rx="2.5"/><path d="M695.746 957.08q7.168 0 13.056 1.536 5.76 1.536 9.728 4.224.768.512.896.896t-.256 1.152l-1.664 2.816q-.384.768-.896.768-.256 0-.896-.384-8.064-5.12-20.096-5.12-12.415 0-19.968 8.96-7.68 9.088-8.704 25.472 9.984-12.16 26.752-12.16 9.473 0 16.896 3.456 7.296 3.584 11.52 10.112 4.096 6.663 4.096 15.872c0 10.92-3.115 19.2-9.344 24.83s-14.72 8.45-25.472 8.45c-9.728 0-17.408-3.16-23.04-9.47-5.717-6.23-8.576-16.09-8.576-29.57q0-28.416 10.496-40.192 10.496-11.648 25.472-11.648m-3.2 34.176q-6.016 0-12.032 2.56-6.016 2.687-9.856 7.684c-2.645 3.41-3.968 7.51-3.968 12.28q0 14.085 6.528 21.12 6.528 7.17 18.176 7.17 28.16 0 28.16-27.39c0-7.68-2.347-13.53-7.04-17.536q-7.04-5.888-19.968-5.888M672.691 886.663v.004c0 11.782 9.224 21.333 20.603 21.333s20.603-9.551 20.603-21.333c11.379 0 20.603-9.552 20.603-21.334S725.276 844 713.897 844c-10.386 0-18.977 7.957-20.397 18.305C692.08 851.957 683.489 844 673.103 844c-11.379 0-20.603 9.551-20.603 21.333 0 11.64 9.002 21.102 20.191 21.33"/><rect width="5" height="33" x="695.5" y="867" rx="2.5" transform="rotate(-180 695.5 867)"/></g><path stroke="#fff066" stroke-width="8" d="M411.779 520.935c13.001 0 23.889 11.163 23.889 25.377v3.923l3.918.081c12.786.265 23.414 11.333 23.414 25.372 0 14.214-10.889 25.377-23.89 25.377-11.873 0-21.966-9.289-23.646-21.741h-7.928c-1.68 12.452-11.773 21.741-23.646 21.741-13.001 0-23.89-11.163-23.89-25.377s10.889-25.376 23.89-25.376h4v-4c0-14.214 10.889-25.377 23.889-25.377Z"/><path fill="#fff066" d="M408.307 583.026a3.041 3.041 0 1 1 6.082 0v30.933a3.041 3.041 0 1 1-6.082 0z"/><path stroke="#fff066" stroke-width="8" d="M243.779 682.935c13.001 0 23.889 11.163 23.889 25.377v3.923l3.918.081c12.786.265 23.414 11.333 23.414 25.372 0 14.214-10.889 25.377-23.89 25.377-11.873 0-21.966-9.289-23.646-21.741h-7.928c-1.68 12.452-11.773 21.741-23.646 21.741-13.001 0-23.89-11.163-23.89-25.377s10.889-25.376 23.89-25.376h4v-4c0-14.214 10.889-25.377 23.889-25.377Z"/><path fill="#fff066" d="M240.307 745.026a3.041 3.041 0 1 1 6.082 0v30.933a3.041 3.041 0 1 1-6.082 0z"/><path stroke="#fff066" stroke-width="8" d="M407.779 682.935c13.001 0 23.889 11.163 23.889 25.377v3.923l3.918.081c12.786.265 23.414 11.333 23.414 25.372 0 14.214-10.889 25.377-23.89 25.377-11.873 0-21.966-9.289-23.646-21.741h-7.928c-1.68 12.452-11.773 21.741-23.646 21.741-13.001 0-23.89-11.163-23.89-25.377s10.889-25.376 23.89-25.376h4v-4c0-14.214 10.889-25.377 23.889-25.377Z"/><path fill="#fff066" d="M404.307 745.026a3.041 3.041 0 1 1 6.082 0v30.933a3.041 3.041 0 1 1-6.082 0z"/><path stroke="#fff066" stroke-width="8" d="M579.779 682.935c13.001 0 23.889 11.163 23.889 25.377v3.923l3.918.081c12.786.265 23.414 11.333 23.414 25.372 0 14.214-10.889 25.377-23.89 25.377-11.873 0-21.966-9.289-23.646-21.741h-7.928c-1.68 12.452-11.773 21.741-23.646 21.741-13.001 0-23.89-11.163-23.89-25.377s10.889-25.376 23.89-25.376h4v-4c0-14.214 10.889-25.377 23.889-25.377Z"/><path fill="#fff066" d="M576.307 745.026a3.041 3.041 0 1 1 6.082 0v30.933a3.041 3.041 0 1 1-6.082 0z"/><path stroke="#fff066" stroke-width="8" d="M579.779 520.935c13.001 0 23.889 11.163 23.889 25.377v3.923l3.918.081c12.786.265 23.414 11.333 23.414 25.372 0 14.214-10.889 25.377-23.89 25.377-11.873 0-21.966-9.289-23.646-21.741h-7.928c-1.68 12.452-11.773 21.741-23.646 21.741-13.001 0-23.89-11.163-23.89-25.377s10.889-25.376 23.89-25.376h4v-4c0-14.214 10.889-25.377 23.889-25.377Z"/><path fill="#fff066" d="M576.307 583.026a3.041 3.041 0 1 1 6.082 0v30.933a3.041 3.041 0 1 1-6.082 0z"/><path stroke="#fff066" stroke-width="8" d="M243.779 520.935c13.001 0 23.889 11.163 23.889 25.377v3.923l3.918.081c12.786.265 23.414 11.333 23.414 25.372 0 14.214-10.889 25.377-23.89 25.377-11.873 0-21.966-9.289-23.646-21.741h-7.928c-1.68 12.452-11.773 21.741-23.646 21.741-13.001 0-23.89-11.163-23.89-25.377s10.889-25.376 23.89-25.376h4v-4c0-14.214 10.889-25.377 23.889-25.377Z"/><path fill="#fff066" d="M240.307 583.026a3.041 3.041 0 1 1 6.082 0v30.933a3.041 3.041 0 1 1-6.082 0z"/><path stroke="#fff066" stroke-width="8" d="M579.779 358.935c13.001 0 23.889 11.163 23.889 25.377v3.923l3.918.081c12.786.265 23.414 11.333 23.414 25.372 0 14.214-10.889 25.377-23.89 25.377-11.873 0-21.966-9.289-23.646-21.741h-7.928c-1.68 12.452-11.773 21.741-23.646 21.741-13.001 0-23.89-11.163-23.89-25.377s10.889-25.376 23.89-25.376h4v-4c0-14.214 10.889-25.377 23.889-25.377Z"/><path fill="#fff066" d="M576.307 421.026a3.041 3.041 0 1 1 6.082 0v30.933a3.041 3.041 0 1 1-6.082 0z"/><path stroke="#fff066" stroke-width="8" d="M243.779 358.935c13.001 0 23.889 11.163 23.889 25.377v3.923l3.918.081c12.786.265 23.414 11.333 23.414 25.372 0 14.214-10.889 25.377-23.89 25.377-11.873 0-21.966-9.289-23.646-21.741h-7.928c-1.68 12.452-11.773 21.741-23.646 21.741-13.001 0-23.89-11.163-23.89-25.377s10.889-25.376 23.89-25.376h4v-4c0-14.214 10.889-25.377 23.889-25.377Z"/><path fill="#fff066" d="M240.307 421.026a3.041 3.041 0 1 1 6.082 0v30.933a3.041 3.041 0 1 1-6.082 0z"/><path stroke="#fff066" stroke-width="8" d="M411.779 358.935c13.001 0 23.889 11.163 23.889 25.377v3.923l3.918.081c12.786.265 23.414 11.333 23.414 25.372 0 14.214-10.889 25.377-23.89 25.377-11.873 0-21.966-9.289-23.646-21.741h-7.928c-1.68 12.452-11.773 21.741-23.646 21.741-13.001 0-23.89-11.163-23.89-25.377s10.889-25.376 23.89-25.376h4v-4c0-14.214 10.889-25.377 23.889-25.377Z"/><path fill="#fff066" d="M408.307 421.026a3.041 3.041 0 1 1 6.082 0v30.933a3.041 3.041 0 1 1-6.082 0z"/><defs><clipPath id="a"><path fill="#fff" d="M46 48h722v1022H46z"/></clipPath></defs></svg>

<svg width="822" height="1122" viewBox="0 0 822 1122" fill="none" xmlns="http://www.w3.org/2000/svg">
<rect width="822" height="1122" rx="20" fill="#1A0033"/>
<g clip-path="url(#clip0_31_1845)">
<path d="M118.254 160.92C113.475 160.92 109.123 160.408 105.198 159.384C101.358 158.36 98.1153 156.952 95.47 155.16C94.958 154.819 94.6593 154.52 94.574 154.264C94.4887 154.008 94.574 153.624 94.83 153.112L96.494 150.296C96.75 149.784 97.0487 149.528 97.39 149.528C97.5607 149.528 97.8593 149.656 98.286 149.912C103.662 153.325 110.361 155.032 118.382 155.032C126.659 155.032 133.315 152.045 138.35 146.072C143.47 140.013 146.371 131.523 147.054 120.6C140.398 128.707 131.481 132.76 120.302 132.76C113.987 132.76 108.355 131.608 103.406 129.304C98.542 126.915 94.702 123.544 91.886 119.192C89.1553 114.755 87.79 109.464 87.79 103.32C87.79 92.3973 90.9047 84.12 97.134 78.488C103.363 72.856 111.854 70.04 122.606 70.04C132.334 70.04 140.014 73.1973 145.646 79.512C151.363 85.7413 154.222 95.5973 154.222 109.08C154.222 128.024 150.723 141.421 143.726 149.272C136.729 157.037 128.238 160.92 118.254 160.92ZM121.454 126.744C125.465 126.744 129.475 125.891 133.486 124.184C137.497 122.392 140.782 119.832 143.342 116.504C145.987 113.091 147.31 108.995 147.31 104.216C147.31 94.8293 145.134 87.7893 140.782 83.096C136.43 78.3173 130.371 75.928 122.606 75.928C103.833 75.928 94.446 85.0587 94.446 103.32C94.446 111 96.7927 116.845 101.486 120.856C106.179 124.781 112.835 126.744 121.454 126.744Z" fill="#FFF066"/>
<path d="M141.309 231.337C141.309 231.336 141.309 231.335 141.309 231.333C141.309 219.551 132.085 210 120.706 210C109.327 210 100.103 219.551 100.103 231.333C88.7243 231.333 79.5 240.885 79.5 252.667C79.5 264.449 88.7243 274 100.103 274C110.489 274 119.08 266.043 120.5 255.695C121.92 266.043 130.511 274 140.897 274C152.276 274 161.5 264.449 161.5 252.667C161.5 241.027 152.498 231.565 141.309 231.337Z" fill="#FFF066"/>
<rect x="118.5" y="251" width="5" height="33" rx="2.5" fill="#FFF066"/>
<path d="M695.746 957.08C700.525 957.08 704.877 957.592 708.802 958.616C712.642 959.64 715.885 961.048 718.53 962.84C719.042 963.181 719.341 963.48 719.426 963.736C719.511 963.992 719.426 964.376 719.17 964.888L717.506 967.704C717.25 968.216 716.951 968.472 716.61 968.472C716.439 968.472 716.141 968.344 715.714 968.088C710.338 964.675 703.639 962.968 695.618 962.968C687.341 962.968 680.685 965.955 675.65 971.928C670.53 977.987 667.629 986.477 666.946 997.4C673.602 989.293 682.519 985.24 693.698 985.24C700.013 985.24 705.645 986.392 710.594 988.696C715.458 991.085 719.298 994.456 722.114 998.808C724.845 1003.25 726.21 1008.54 726.21 1014.68C726.21 1025.6 723.095 1033.88 716.866 1039.51C710.637 1045.14 702.146 1047.96 691.394 1047.96C681.666 1047.96 673.986 1044.8 668.354 1038.49C662.637 1032.26 659.778 1022.4 659.778 1008.92C659.778 989.976 663.277 976.579 670.274 968.728C677.271 960.963 685.762 957.08 695.746 957.08ZM692.546 991.256C688.535 991.256 684.525 992.109 680.514 993.816C676.503 995.608 673.218 998.168 670.658 1001.5C668.013 1004.91 666.69 1009.01 666.69 1013.78C666.69 1023.17 668.866 1030.21 673.218 1034.9C677.57 1039.68 683.629 1042.07 691.394 1042.07C710.167 1042.07 719.554 1032.94 719.554 1014.68C719.554 1007 717.207 1001.15 712.514 997.144C707.821 993.219 701.165 991.256 692.546 991.256Z" fill="#FFF066"/>
<path d="M672.691 886.663C672.691 886.664 672.691 886.665 672.691 886.667C672.691 898.449 681.915 908 693.294 908C704.673 908 713.897 898.449 713.897 886.667C725.276 886.667 734.5 877.115 734.5 865.333C734.5 853.551 725.276 844 713.897 844C703.511 844 694.92 851.957 693.5 862.305C692.08 851.957 683.489 844 673.103 844C661.724 844 652.5 853.551 652.5 865.333C652.5 876.973 661.502 886.435 672.691 886.663Z" fill="#FFF066"/>
<rect x="695.5" y="867" width="5" height="33" rx="2.5" transform="rotate(-180 695.5 867)" fill="#FFF066"/>
</g>
<path d="M411.779 520.935C424.78 520.935 435.668 532.098 435.668 546.312V550.235L439.586 550.316C452.372 550.581 463 561.649 463 575.688C463 589.902 452.111 601.065 439.11 601.065C427.237 601.065 417.144 591.776 415.464 579.324H407.536C405.856 591.776 395.763 601.065 383.89 601.065C370.889 601.065 360 589.902 360 575.688C360 561.475 370.889 550.312 383.89 550.312H387.89V546.312C387.89 532.098 398.779 520.935 411.779 520.935Z" stroke="#FFF066" stroke-width="8"/>
<path d="M408.307 583.026C408.307 581.347 409.668 579.985 411.348 579.985C413.028 579.985 414.389 581.347 414.389 583.026V613.959C414.389 615.638 413.028 617 411.348 617C409.668 617 408.307 615.638 408.307 613.959V583.026Z" fill="#FFF066"/>
<path d="M243.779 682.935C256.78 682.935 267.668 694.098 267.668 708.312V712.235L271.586 712.316C284.372 712.581 295 723.649 295 737.688C295 751.902 284.111 763.065 271.11 763.065C259.237 763.065 249.144 753.776 247.464 741.324H239.536C237.856 753.776 227.763 763.065 215.89 763.065C202.889 763.065 192 751.902 192 737.688C192 723.475 202.889 712.312 215.89 712.312H219.89V708.312C219.89 694.098 230.779 682.935 243.779 682.935Z" stroke="#FFF066" stroke-width="8"/>
<path d="M240.307 745.026C240.307 743.347 241.668 741.985 243.348 741.985C245.028 741.985 246.389 743.347 246.389 745.026V775.959C246.389 777.638 245.028 779 243.348 779C241.668 779 240.307 777.638 240.307 775.959V745.026Z" fill="#FFF066"/>
<path d="M407.779 682.935C420.78 682.935 431.668 694.098 431.668 708.312V712.235L435.586 712.316C448.372 712.581 459 723.649 459 737.688C459 751.902 448.111 763.065 435.11 763.065C423.237 763.065 413.144 753.776 411.464 741.324H403.536C401.856 753.776 391.763 763.065 379.89 763.065C366.889 763.065 356 751.902 356 737.688C356 723.475 366.889 712.312 379.89 712.312H383.89V708.312C383.89 694.098 394.779 682.935 407.779 682.935Z" stroke="#FFF066" stroke-width="8"/>
<path d="M404.307 745.026C404.307 743.347 405.668 741.985 407.348 741.985C409.028 741.985 410.389 743.347 410.389 745.026V775.959C410.389 777.638 409.028 779 407.348 779C405.668 779 404.307 777.638 404.307 775.959V745.026Z" fill="#FFF066"/>
<path d="M579.779 682.935C592.78 682.935 603.668 694.098 603.668 708.312V712.235L607.586 712.316C620.372 712.581 631 723.649 631 737.688C631 751.902 620.111 763.065 607.11 763.065C595.237 763.065 585.144 753.776 583.464 741.324H575.536C573.856 753.776 563.763 763.065 551.89 763.065C538.889 763.065 528 751.902 528 737.688C528 723.475 538.889 712.312 551.89 712.312H555.89V708.312C555.89 694.098 566.779 682.935 579.779 682.935Z" stroke="#FFF066" stroke-width="8"/>
<path d="M576.307 745.026C576.307 743.347 577.668 741.985 579.348 741.985C581.028 741.985 582.389 743.347 582.389 745.026V775.959C582.389 777.638 581.028 779 579.348 779C577.668 779 576.307 777.638 576.307 775.959V745.026Z" fill="#FFF066"/>
<path d="M579.779 520.935C592.78 520.935 603.668 532.098 603.668 546.312V550.235L607.586 550.316C620.372 550.581 631 561.649 631 575.688C631 589.902 620.111 601.065 607.11 601.065C595.237 601.065 585.144 591.776 583.464 579.324H575.536C573.856 591.776 563.763 601.065 551.89 601.065C538.889 601.065 528 589.902 528 575.688C528 561.475 538.889 550.312 551.89 550.312H555.89V546.312C555.89 532.098 566.779 520.935 579.779 520.935Z" stroke="#FFF066" stroke-width="8"/>
<path d="M576.307 583.026C576.307 581.347 577.668 579.985 579.348 579.985C581.028 579.985 582.389 581.347 582.389 583.026V613.959C582.389 615.638 581.028 617 579.348 617C577.668 617 576.307 615.638 576.307 613.959V583.026Z" fill="#FFF066"/>
<path d="M243.779 520.935C256.78 520.935 267.668 532.098 267.668 546.312V550.235L271.586 550.316C284.372 550.581 295 561.649 295 575.688C295 589.902 284.111 601.065 271.11 601.065C259.237 601.065 249.144 591.776 247.464 579.324H239.536C237.856 591.776 227.763 601.065 215.89 601.065C202.889 601.065 192 589.902 192 575.688C192 561.475 202.889 550.312 215.89 550.312H219.89V546.312C219.89 532.098 230.779 520.935 243.779 520.935Z" stroke="#FFF066" stroke-width="8"/>
<path d="M240.307 583.026C240.307 581.347 241.668 579.985 243.348 579.985C245.028 579.985 246.389 581.347 246.389 583.026V613.959C246.389 615.638 245.028 617 243.348 617C241.668 617 240.307 615.638 240.307 613.959V583.026Z" fill="#FFF066"/>
<path d="M579.779 358.935C592.78 358.935 603.668 370.098 603.668 384.312V388.235L607.586 388.316C620.372 388.581 631 399.649 631 413.688C631 427.902 620.111 439.065 607.11 439.065C595.237 439.065 585.144 429.776 583.464 417.324H575.536C573.856 429.776 563.763 439.065 551.89 439.065C538.889 439.065 528 427.902 528 413.688C528 399.475 538.889 388.312 551.89 388.312H555.89V384.312C555.89 370.098 566.779 358.935 579.779 358.935Z" stroke="#FFF066" stroke-width="8"/>
<path d="M576.307 421.026C576.307 419.347 577.668 417.985 579.348 417.985C581.028 417.985 582.389 419.347 582.389 421.026V451.959C582.389 453.638 581.028 455 579.348 455C577.668 455 576.307 453.638 576.307 451.959V421.026Z" fill="#FFF066"/>
<path d="M243.779 358.935C256.78 358.935 267.668 370.098 267.668 384.312V388.235L271.586 388.316C284.372 388.581 295 399.649 295 413.688C295 427.902 284.111 439.065 271.11 439.065C259.237 439.065 249.144 429.776 247.464 417.324H239.536C237.856 429.776 227.763 439.065 215.89 439.065C202.889 439.065 192 427.902 192 413.688C192 399.475 202.889 388.312 215.89 388.312H219.89V384.312C219.89 370.098 230.779 358.935 243.779 358.935Z" stroke="#FFF066" stroke-width="8"/>
<path d="M240.307 421.026C240.307 419.347 241.668 417.985 243.348 417.985C245.028 417.985 246.389 419.347 246.389 421.026V451.959C246.389 453.638 245.028 455 243.348 455C241.668 455 240.307 453.638 240.307 451.959V421.026Z" fill="#FFF066"/>
<path d="M411.779 358.935C424.78 358.935 435.668 370.098 435.668 384.312V388.235L439.586 388.316C452.372 388.581 463 399.649 463 413.688C463 427.902 452.111 439.065 439.11 439.065C427.237 439.065 417.144 429.776 415.464 417.324H407.536C405.856 429.776 395.763 439.065 383.89 439.065C370.889 439.065 360 427.902 360 413.688C360 399.475 370.889 388.312 383.89 388.312H387.89V384.312C387.89 370.098 398.779 358.935 411.779 358.935Z" stroke="#FFF066" stroke-width="8"/>
<path d="M408.307 421.026C408.307 419.347 409.668 417.985 411.348 417.985C413.028 417.985 414.389 419.347 414.389 421.026V451.959C414.389 453.638 413.028 455 411.348 455C409.668 455 408.307 453.638 408.307 451.959V421.026Z" fill="#FFF066"/>
<defs>
<clipPath id="clip0_31_1845">
<rect width="722" height="1022" fill="white" transform="translate(46 48)"/>
</clipPath>
</defs>
</svg>
